packages/icons/general/Copy.svg

<svg width="25" height="24" viewBox="0 0 25 24" fill="none" xmlns="http://www.w3.org/2000/svg">
  <path fill-rule="evenodd" clip-rule="evenodd" d="M12.104 18.543C10.7569 18.543 9.58282 18.1416 8.73833 17.3526C7.88844 16.5586 7.45029 15.4439 7.45029 14.177L7.45029 7.05895C7.45029 5.79793 7.88527 4.68816 8.72827 3.89528C9.56599 3.10736 10.731 2.70276 12.0679 2.6953L12.0724 2.69529L18.6466 2.69297C19.9937 2.69297 21.168 3.0943 22.0123 3.88339C22.862 4.6775 23.2998 5.79219 23.2998 7.05895L23.2998 14.177C23.2998 15.4379 22.8651 16.5475 22.0223 17.3403C21.1847 18.1281 20.0198 18.5324 18.683 18.5399L18.6786 18.5399L12.104 18.543C12.104 18.543 12.1044 18.543 12.104 17.743L12.104 18.543ZM12.104 16.943C11.0708 16.9429 10.3179 16.6387 9.83064 16.1835C9.34878 15.7333 9.05029 15.065 9.05029 14.177L9.05029 7.05895C9.05029 6.17589 9.34639 5.51041 9.82446 5.06077C10.3075 4.60646 11.0528 4.30138 12.0749 4.29529C12.0755 4.29529 12.0762 4.29528 12.0769 4.29528L18.646 4.29297C18.6461 4.29297 18.6471 4.29297 18.6471 4.29297C19.6804 4.29301 20.4328 4.5972 20.9198 5.05234C21.4014 5.50249 21.6998 6.1708 21.6998 7.05895L21.6998 14.177C21.6998 15.0602 21.4038 15.7254 20.9261 16.1748C20.4433 16.6288 19.6982 16.9338 18.6761 16.9399L12.104 16.943Z" fill="#767F8D"/>
  <path fill-rule="evenodd" clip-rule="evenodd" d="M8.61554 21.6582C7.26843 21.6582 6.09433 21.2569 5.24984 20.4679C4.39995 19.6738 3.9618 18.5591 3.9618 17.2922L3.9618 10.1742C3.9618 8.54819 4.68701 7.195 6.01441 6.44081C6.39856 6.22255 6.88692 6.35703 7.10518 6.74118C7.32344 7.12533 7.18897 7.61369 6.80481 7.83195C6.03367 8.27009 5.5618 9.05657 5.5618 10.1742L5.5618 17.2922C5.5618 18.1802 5.86029 18.8485 6.34215 19.2987C6.82938 19.754 7.58208 20.0582 8.61536 20.0582L15.1876 20.0551C16.3326 20.0483 17.1303 19.6677 17.6058 19.1141C17.8936 18.7789 18.3987 18.7405 18.7339 19.0284C19.0691 19.3162 19.1075 19.8213 18.8196 20.1565C17.9773 21.1374 16.6945 21.6467 15.1945 21.6551L15.1901 21.6551L8.61554 21.6582C8.61549 21.6582 8.61592 21.6582 8.61554 20.8582L8.61554 21.6582Z" fill="#767F8D"/>
</svg>

<svg xmlns="http://www.w3.org/2000/svg" width="25" height="24" fill="none">
    <path fill="#767F8D" fill-rule="evenodd" d="M12.104 18.543c-1.347 0-2.521-.401-3.366-1.19-.85-.794-1.288-1.91-1.288-3.176V7.059c0-1.261.435-2.37 1.278-3.164.838-.788 2.003-1.192 3.34-1.2h.004l6.575-.002c1.347 0 2.521.401 3.365 1.19.85.795 1.288 1.91 1.288 3.176v7.118c0 1.26-.435 2.37-1.278 3.163-.837.788-2.002 1.192-3.339 1.2h-.004l-6.575.003v-.8.8Zm0-1.6c-1.033 0-1.786-.304-2.273-.76-.482-.45-.78-1.118-.78-2.006V7.059c0-.883.295-1.549.773-1.998.483-.455 1.229-.76 2.25-.766h.003l6.569-.002h.001c1.033 0 1.786.304 2.273.76.481.45.78 1.118.78 2.006v7.118c0 .883-.296 1.548-.774 1.998-.483.454-1.228.759-2.25.765l-6.572.003Z" clip-rule="evenodd"/>
    <path fill="#767F8D" fill-rule="evenodd" d="M8.616 21.658c-1.348 0-2.522-.401-3.366-1.19-.85-.794-1.288-1.909-1.288-3.176v-7.118c0-1.626.725-2.979 2.052-3.733a.8.8 0 0 1 .79 1.391c-.77.438-1.242 1.225-1.242 2.342v7.118c0 .888.298 1.556.78 2.007.487.455 1.24.76 2.273.76l6.573-.004c1.145-.007 1.942-.387 2.418-.94a.8.8 0 1 1 1.214 1.042c-.843.98-2.125 1.49-3.626 1.498h-.004l-6.574.003v-.8.8Z" clip-rule="evenodd"/>
</svg>
